X: 1
T: the Auld Grey Cat   [Em]
R: reel
O: Kerr c.1880
B: Kerr's Merry Melodies, v.1 p.28 c.1880
B: Roaring Jelly Coll.
Z: John Chambers <jc:trillian.mit.edu>
M: C|
L: 1/8
K: Edor
B2 \
| "Em"{^d}e2e2 E3F | GFGA BABc | "D"{c}d2d2 D3E | FAdB AFED |  "Em"{^d}e2e2 E3F |
| GFGA BABc | "D"{c}dcBA "B7"BAGF | "Em"E4 e2 :: ed | "Em"B2e2 e3d  | Bdef gfed |
| "D"A2d2 d3B | ABde fedf | "Em"e2B2 "D"g2B2 | "C"a2B2 "B7"b3a | "Am"gfed "B7"BAB^d | "Em"e6 :|

%%sep 2 1 500

